X: 7865
T: Compliments To Eilidh Smith
R: slip jig
M: 9/8
K: Amajor
|:E2A ABc B2A|AEA ABc BAE|F2B Bce B2A|Bce f2c BAF|
E2A ABc B2A|AEA ABc BAE|DEF Adc e z g|1 aec BAG A z2:|2 aec BAG A (3BBA||
F3 ABc z BA|EEE FAc z BA|DDD EF(A A) (3FED|EEE EFA BAE|
FFF ABc z BA|EEE FAc z BA|DEF Adc e z g|aec BAG A (3BBA|
F3 ABc z BA|EEE FAc z BA|DDD EF(A A) (3FED|EEE EFA BAE|
FFF ABc z BA|EEE FFF AAA|BBB ccc ddd|ef(a a)fe BAF||
DEF Adc (e3|(e3) e) z2 z3|cAF EFc A z2||

